flaticon/constructions/tap.svg

<svg xmlns="http://www.w3.org/2000/svg" width="32" height="32" viewBox="0 0 24 24">
    <path d="M18.496094 16.898438C18.414062 16.734375 18.292969 16.652344 18.128906 16.652344 17.96875 16.652344 17.84375 16.734375 17.765625 16.898438 17.765625 16.898438 17.035156 18.4375 16.75 19.046875 16.585938 19.414062 16.425781 19.738281 16.503906 20.226562 16.628906 20.875 17.15625 21.402344 17.804688 21.523438 17.886719 21.566406 18.007812 21.566406 18.089844 21.566406 18.453125 21.566406 18.859375 21.441406 19.183594 21.160156 19.550781 20.835938 19.753906 20.386719 19.753906 19.902344 19.753906 19.574219 19.671875 19.371094 19.550781 19.128906 19.304688 18.5625 18.535156 16.976562 18.496094 16.898438zM18.617188 20.589844C18.414062 20.753906 18.167969 20.792969 17.925781 20.753906 17.601562 20.671875 17.316406 20.429688 17.277344 20.101562 17.234375 19.898438 17.277344 19.738281 17.4375 19.414062 17.601562 19.089844 17.886719 18.519531 18.089844 18.035156 18.332031 18.5625 18.65625 19.210938 18.777344 19.535156 18.859375 19.738281 18.898438 19.859375 18.898438 19.980469 18.898438 20.226562 18.820312 20.429688 18.617188 20.589844zM21.902344 4.515625C22.714844 4.515625 23.367188 3.867188 23.367188 3.054688 23.367188 2.285156 22.796875 1.675781 22.027344 1.554688L6.316406.0117188C5.179688-.0703125 4.042969.296875 3.191406 1.066406 2.339844 1.835938 1.851562 2.972656 1.851562 4.109375L1.851562 21.617188C1.152344 21.796875.632812 22.433594.632812 23.1875L.632812 23.59375C.632812 23.835938.796875 24 1.039062 24L9.160156 24C9.402344 24 9.566406 23.835938 9.566406 23.59375L9.566406 23.1875C9.566406 22.433594 9.046875 21.796875 8.347656 21.617188L8.347656 17.953125C8.347656 16.410156 8.957031 14.949219 10.011719 13.972656 11.230469 12.835938 12.8125 12.230469 14.433594 12.230469 14.476562 12.230469 14.476562 12.230469 14.515625 12.230469L15.652344 12.230469 15.652344 13.445312C15.652344 13.691406 15.816406 13.851562 16.058594 13.851562L20.117188 13.851562C20.363281 13.851562 20.523438 13.691406 20.523438 13.445312L20.523438 12.230469 21.742188 12.230469C21.984375 12.230469 22.148438 12.066406 22.148438 11.824219L22.148438 8.210938C22.148438 7.277344 21.375 6.546875 20.484375 6.546875L14.433594 6.546875C12.324219 6.546875 10.253906 7.15625 8.347656 8.25L8.347656 4.515625zM3.761719 1.675781C4.410156 1.066406 5.34375.78125 6.277344.863281L21.945312 2.40625C22.308594 2.445312 22.554688 2.730469 22.554688 3.054688 22.554688 3.421875 22.269531 3.703125 21.902344 3.703125L2.703125 3.703125C2.785156 2.933594 3.152344 2.203125 3.761719 1.675781zM8.753906 23.1875L1.445312 23.1875C1.445312 22.742188 1.8125 22.375 2.257812 22.375L7.941406 22.375C8.386719 22.375 8.753906 22.742188 8.753906 23.1875zM19.710938 13.039062L16.464844 13.039062 16.464844 12.230469 19.710938 12.230469zM7.777344 9.304688C7.898438 9.386719 8.0625 9.386719 8.183594 9.304688 10.09375 8.046875 12.285156 7.359375 14.433594 7.359375L20.523438 7.359375C21.011719 7.359375 21.375 7.765625 21.375 8.210938L21.375 11.417969 14.476562 11.417969C14.433594 11.417969 14.433594 11.417969 14.394531 11.417969 12.566406 11.417969 10.824219 12.105469 9.484375 13.367188 8.226562 14.5 7.535156 16.207031 7.535156 17.953125L7.535156 21.566406 4.289062 21.566406 4.289062 20.347656C4.289062 20.101562 4.125 19.941406 3.882812 19.941406 3.636719 19.941406 3.476562 20.101562 3.476562 20.347656L3.476562 21.566406 2.664062 21.566406 2.664062 4.515625 3.476562 4.515625 3.476562 5.328125C3.476562 5.570312 3.636719 5.734375 3.882812 5.734375 4.125 5.734375 4.289062 5.570312 4.289062 5.328125L4.289062 4.515625 7.535156 4.515625 7.535156 8.980469C7.535156 9.144531 7.617188 9.265625 7.777344 9.304688zM7.777344 9.304688"/>
    <path d="M3.882812 13.445312C3.636719 13.445312 3.476562 13.609375 3.476562 13.851562L3.476562 17.101562C3.476562 17.34375 3.636719 17.503906 3.882812 17.503906 4.125 17.503906 4.289062 17.34375 4.289062 17.101562L4.289062 13.851562C4.289062 13.609375 4.125 13.445312 3.882812 13.445312zM3.882812 18.316406C3.636719 18.316406 3.476562 18.480469 3.476562 18.722656 3.476562 18.96875 3.636719 19.128906 3.882812 19.128906 4.125 19.128906 4.289062 18.96875 4.289062 18.722656 4.289062 18.519531 4.125 18.316406 3.882812 18.316406zM3.882812 7.359375C3.636719 7.359375 3.476562 7.519531 3.476562 7.765625L3.476562 11.824219C3.476562 12.066406 3.636719 12.230469 3.882812 12.230469 4.125 12.230469 4.289062 12.066406 4.289062 11.824219L4.289062 7.765625C4.289062 7.519531 4.125 7.359375 3.882812 7.359375zM3.882812 7.359375"/>
</svg>

<svg xmlns="http://www.w3.org/2000/svg" width="32" height="32" viewBox="0 0 24 24">
    <path d="M18.496 16.898c-.082-.164-.203-.246-.367-.246-.16 0-.285.082-.363.246 0 0-.73 1.54-1.016 2.149-.164.367-.324.691-.246 1.18a1.653 1.653 0 0 0 1.3 1.296c.083.043.204.043.286.043.363 0 .77-.125 1.094-.406.367-.324.57-.773.57-1.258 0-.328-.082-.53-.203-.773a91.652 91.652 0 0 0-1.055-2.23zm.121 3.692a.853.853 0 0 1-.691.164c-.324-.082-.61-.324-.649-.652-.043-.204 0-.364.16-.688.165-.324.45-.894.653-1.379.242.527.566 1.176.687 1.5.082.203.121.324.121.445 0 .247-.078.45-.28.61zm0 0M21.902 4.516c.813 0 1.465-.649 1.465-1.461 0-.77-.57-1.38-1.34-1.5L6.317.012A4.206 4.206 0 0 0 3.19 1.066a4.148 4.148 0 0 0-1.34 3.043v17.508c-.699.18-1.218.817-1.218 1.57v.407c0 .242.164.406.406.406H9.16a.385.385 0 0 0 .406-.406v-.407c0-.753-.52-1.39-1.218-1.57v-3.664c0-1.543.609-3.004 1.664-3.98a6.474 6.474 0 0 1 4.422-1.743h1.218v1.215c0 .246.164.407.407.407h4.058c.246 0 .406-.16.406-.407V12.23h1.22a.385.385 0 0 0 .405-.406V8.211c0-.934-.773-1.664-1.664-1.664h-6.05c-2.11 0-4.18.61-6.086 1.703V4.516zm-18.14-2.84C4.41 1.066 5.344.78 6.277.863l15.668 1.543a.66.66 0 0 1 .61.649.64.64 0 0 1-.653.648H2.703c.082-.77.45-1.5 1.059-2.027zm4.992 21.511H1.445c0-.445.367-.812.813-.812H7.94c.446 0 .813.367.813.813zM19.71 13.04h-3.246v-.809h3.246zM7.777 9.305a.366.366 0 0 0 .407 0c1.91-1.258 4.101-1.946 6.25-1.946h6.09c.488 0 .851.407.851.852v3.207H14.395a7.13 7.13 0 0 0-4.91 1.95c-1.258 1.132-1.95 2.839-1.95 4.585v3.613H4.29v-1.218c0-.246-.164-.407-.406-.407-.246 0-.406.16-.406.407v1.218h-.813V4.516h.813v.812c0 .242.16.406.406.406a.385.385 0 0 0 .406-.406v-.812h3.246V8.98c0 .165.082.286.242.325zm0 0"/>
    <path d="M3.883 13.445c-.246 0-.406.164-.406.407v3.25c0 .242.16.402.406.402.242 0 .406-.16.406-.402v-3.25a.385.385 0 0 0-.406-.407zm0 0M3.883 18.316c-.246 0-.406.164-.406.407 0 .246.16.406.406.406.242 0 .406-.16.406-.406a.408.408 0 0 0-.406-.407zm0 0M3.883 7.36c-.246 0-.406.16-.406.406v4.058c0 .242.16.406.406.406a.385.385 0 0 0 .406-.406V7.766c0-.246-.164-.407-.406-.407zm0 0"/>
</svg>
